src/assets/img/eye.svg

<svg viewBox="0 0 16 16" fill="000000" xmlns="http://www.w3.org/2000/svg">
<path d="M1.75978 5.67858C3.56252 4.17458 5.63791 3.33333 7.8327 3.33333C10.0275 3.33333 12.1029 4.17458 13.9056 5.67858C14.1883 5.91444 14.6087 5.87646 14.8446 5.59374C15.0805 5.31102 15.0425 4.89063 14.7598 4.65476C12.7552 2.98237 10.3857 2 7.8327 2C5.27974 2 2.9102 2.98237 0.905623 4.65476C0.622903 4.89063 0.584923 5.31102 0.82079 5.59374C1.05666 5.87646 1.47706 5.91444 1.75978 5.67858Z" fill="#000000"/>
<path fill-rule="evenodd" clip-rule="evenodd" d="M2.7332 6.45935C3.93222 5.44709 5.64231 4.5 7.58268 4.5C9.52306 4.5 11.2331 5.44709 12.4322 6.45935C13.0366 6.96963 13.5321 7.51363 13.8824 7.99952C14.0571 8.24199 14.2029 8.47992 14.3078 8.70052C14.4041 8.90315 14.4993 9.15887 14.4993 9.41667C14.4993 9.67447 14.4041 9.93019 14.3078 10.1328C14.2029 10.3534 14.0571 10.5913 13.8824 10.8338C13.5321 11.3197 13.0366 11.8637 12.4322 12.374C11.2331 13.3862 9.52306 14.3333 7.58268 14.3333C5.64231 14.3333 3.93222 13.3862 2.7332 12.374C2.12878 11.8637 1.63322 11.3197 1.28301 10.8338C1.10825 10.5913 0.962506 10.3534 0.857602 10.1328C0.761243 9.93019 0.666016 9.67447 0.666016 9.41667C0.666016 9.15887 0.761243 8.90315 0.857602 8.70052C0.962506 8.47992 1.10825 8.24199 1.28301 7.99952C1.63322 7.51363 2.12878 6.96963 2.7332 6.45935ZM2.00408 9.41667C2.01082 9.43924 2.02638 9.4859 2.06172 9.56021C2.12333 9.68976 2.22316 9.85786 2.36467 10.0542C2.64699 10.4459 3.06672 10.9106 3.59333 11.3552C4.65637 12.2526 6.07128 13 7.58268 13C9.09409 13 10.509 12.2526 11.572 11.3552C12.0986 10.9106 12.5184 10.4459 12.8007 10.0542C12.9422 9.85786 13.042 9.68976 13.1036 9.56021C13.139 9.4859 13.1545 9.43924 13.1613 9.41666C13.1545 9.39409 13.139 9.34743 13.1036 9.27312C13.042 9.14357 12.9422 8.97547 12.8007 8.77913C12.5184 8.38742 12.0986 7.92274 11.572 7.47816C11.3484 7.28939 11.1093 7.10726 10.8569 6.93733C10.9496 7.24756 10.9993 7.5763 10.9993 7.91667C10.9993 9.80364 9.46966 11.3333 7.58268 11.3333C5.69571 11.3333 4.16602 9.80364 4.16602 7.91667C4.16602 7.5763 4.21578 7.24756 4.30844 6.93733C4.05609 7.10726 3.81692 7.28939 3.59333 7.47816C3.06672 7.92274 2.64699 8.38742 2.36467 8.77913C2.22316 8.97547 2.12333 9.14357 2.06172 9.27312C2.02638 9.34743 2.01082 9.39409 2.00408 9.41667ZM5.49935 7.91667C5.49935 6.76607 6.43209 5.83333 7.58268 5.83333C8.73328 5.83333 9.66602 6.76607 9.66602 7.91667C9.66602 9.06726 8.73328 10 7.58268 10C6.43209 10 5.49935 9.06726 5.49935 7.91667Z" fill="#0000000"/>
</svg>

<svg viewBox="0 0 16 16" fill="0" xmlns="http://www.w3.org/2000/svg"><path d="M1.76 5.679c1.803-1.504 3.878-2.346 6.073-2.346 2.194 0 4.27.842 6.073 2.346a.667.667 0 0 0 .854-1.024C12.755 2.982 10.386 2 7.833 2S2.91 2.982.906 4.655a.667.667 0 1 0 .854 1.024Z" fill="#000"/><path fill-rule="evenodd" clip-rule="evenodd" d="M2.733 6.46c1.2-1.013 2.91-1.96 4.85-1.96 1.94 0 3.65.947 4.85 1.96.604.51 1.1 1.054 1.45 1.54.174.242.32.48.425.7.096.203.191.459.191.717 0 .257-.095.513-.191.716-.105.22-.25.458-.426.7a8.856 8.856 0 0 1-1.45 1.541c-1.199 1.012-2.909 1.96-4.85 1.96-1.94 0-3.65-.948-4.849-1.96a8.852 8.852 0 0 1-1.45-1.54 4.632 4.632 0 0 1-.425-.701C.76 9.93.666 9.674.666 9.417c0-.258.095-.514.192-.716.105-.221.25-.459.425-.701.35-.486.846-1.03 1.45-1.54Zm-.729 2.957c.007.022.022.069.058.143.061.13.161.298.303.494.282.392.702.857 1.228 1.301C4.656 12.253 6.071 13 7.583 13c1.511 0 2.926-.747 3.989-1.645.527-.444.946-.91 1.229-1.3.141-.197.241-.365.303-.495.035-.074.05-.12.057-.143a1.015 1.015 0 0 0-.057-.144 3.322 3.322 0 0 0-.303-.494 7.524 7.524 0 0 0-1.229-1.3 8.276 8.276 0 0 0-.715-.542 3.417 3.417 0 1 1-6.548 0c-.253.17-.492.352-.716.541-.526.445-.946.91-1.228 1.301a3.323 3.323 0 0 0-.303.494 1.01 1.01 0 0 0-.058.144Zm3.495-1.5a2.083 2.083 0 1 1 4.167 0 2.083 2.083 0 0 1-4.167 0Z" fill="#0000000"/></svg>
